X: 1
T: Firehose, The
M: 4/4
L: 1/8
R: reel
K: Dmin
|:,A|DEFD EFGE|BAGB AFDA|dDcD BDAD|GFEF E3,A|
DEFE EFGE|BAGB Ad(3ddd|fedf ecAG|FAEA D3:|
|:z|gfef dA(3AAA|dAfe eddf|gfef eB(3BBB|dBfe edd^c|
dAfA dAfA|^cAeA cAeA|BAGB AFDF|E,A,^CE D3:|
|:z|FDDG DDAD|BDDB AFD|EAAG ABAG|EAAG BAFE|
FDDG DDAD|BDDc d2A|BAGB AGFA|FAEA D3:|
